X:1
T:Title
%%score ( 1 2 ) 3
L:1/8
Q:1/4=90
M:4/4
K:Ab
V:1 treble nm="Strings 1, Soprano"
V:2 treble 
V:3 bass nm="Strings 1, Bass"
V:1
 z4 z2 [CA][DB] | [Ec]2 [Ec][DB] [CA]2 [EA][EG] | [DF]2 [FA][DF] [CE]2 [CA][DB] | %3
w: 1.~There's~ a~|light~ shin ing~ down~ on~ my~|path way~ to day,~ Caus ing~|
 [Ac]2 [Ac][Ac] [Ac]2 [Ae][Ac] | [GB]6 [CA][DB] | [Ec]2 [Ec][DB] [CA]2 [EA][EG] | %6
w: dark ness~ and~ shad ows~ to~|flee;~ And~ my~|soul~ doth~ re joice~ as~ I~|
 [DF]2 [FA][DF] [CE]2 [CA][DB] | [Ec]2 [Fd][Ac] [GB]2 [Ec][DB] | [CA]6 [CA][DB] | c6 z2 | A6 z2 | %11
w: walk~ in~ the~ way,~ There's~ a~|light~ shin ing~ down~ up on~|me.~ * *|||
 [Ac]2 [Ac][Ac] [Ac]2 [Ae][Ec] | B6 z2 | [Ec]2 [Ec][DB] [CA]2 [EA][EG] | %14
w: |||
 [DF]2 [FA][DF] [CE]2 [CA][DB] | [Ec]2 [Fd][Ac] [GB]2 [Ec][DB] | [CA]6 z2 |] %17
w: |||
V:2
 x8 | x8 | x8 | x8 | x8 | x8 | x8 | x8 | x8 | E2 EE E2 [Ec][EB] | C2 CD C2 [CA][DB] | x8 | %12
 G2 GF E2 [CA][DB] | x8 | x8 | x8 | x8 |] %17
V:3
 z4 z2 [A,,A,][A,,A,] | [A,,A,]2 [C,A,][D,F,] [E,A,]2 [C,A,][C,A,] | %2
 [D,A,]2 [D,F,][D,A,] [A,,A,]2 [C,A,][D,A,] | [E,C]2 [A,C][A,C] [A,C]2 [A,C][A,C] | %4
 [E,E]6 [A,,A,][A,,A,] | [A,,A,]2 [C,A,][D,F,] [E,A,]2 [C,A,][C,A,] | %6
 [D,A,]2 [D,F,][D,A,] [A,,A,]2 [C,A,][D,A,] | [E,A,]2 [F,A,][E,C] [E,E]2 [E,A,][E,B,] | %8
 [A,,E,A,]6 [A,,A,][A,,A,] | [A,,A,]2 [A,,A,][A,,A,] [A,,A,]2 [A,,A,][A,,A,] | %10
 [A,,A,]2 [C,E,][D,A,] [E,A,]2 [A,,A,][A,,A,] | [A,,A,]2 [A,,A,][A,,A,] [A,,A,]2 [A,C][A,E] | %12
 [E,B,]2 [E,B,][E,B,] [E,B,]2 [A,,A,][A,,A,] | [A,,A,]2 [C,A,][D,F,] [E,A,]2 [C,A,][C,A,] | %14
 [D,A,]2 [D,F,][D,A,] [A,,A,]2 [C,A,][D,A,] | [E,A,]2 [F,A,][E,C] [E,E]2 [E,A,][E,B,] | %16
 [A,,E,A,]6 z2 |] %17

